www/assets/icons/man_3.svg

<svg width="24" height="24" viewBox="0 0 24 24" xmlns="http://www.w3.org/2000/svg" fill='currentColor'><path d="M14 7.12441H10C8.9 7.12441 8 8.02441 8 9.12441V15.1244H10V22.1244H14V15.1244H16V9.12441C16 8.02441 15.1 7.12441 14 7.12441Z"/><path d="M14.2485 4.12431L11.9999 1.87573L9.75132 4.12431L11.9999 6.37289L14.2485 4.12431Z"/></svg>

<svg xmlns="http://www.w3.org/2000/svg" width="24" height="24" viewBox="0 0 24 24" fill='currentColor'><path d="M14 7.124h-4c-1.1 0-2 .9-2 2v6h2v7h4v-7h2v-6c0-1.1-.9-2-2-2m.249-3-2.25-2.248-2.248 2.248L12 6.373z"/></svg>
